X: 401
T: The humors of Castleoliver
C:anon.
O:Ireland
B:Francis O'Neill: "The Dance Music of Ireland" (1907) no. 401
R:Single jig
Z:Transcribed by Frank Nordberg - http://www.musicaviva.com
F:http://www.musicaviva.com/abc/tunes/ireland/oneill-1001/oneill-1001-040
1.abc
M:6/8
L:1/8
K:D
ABc d3|edc d2A|ABc d2e|fed cAG|(F/G/AB) =c3|AdB =c2A|G2A =c2A|dcA G
ED:|
|:(A/B/AG) F2D|DED F2D|DDD G2A|BAG ABc|(d/c/AG) F2D|DED F2D|DDD G2A|[1 BA
G AFD:|[2 Bcd AFD|]
W:
W:
W:  From Musica Viva - http://www.musicaviva.com
W:  the Internet center for free sheet music downloads.


